X:308
T: Miss Admiral Gordon's Strathspey
N: O'Farrell's Pocket Companion v.4 (Sky ed. p.137)
N: "Scotch"
M: C
L: 1/8
R: hornpipe
Q: 200
K: D
A| ddd>d d>Ad>b| a<fed B2 Be| ddd>d d>Ad>b| ab/c'/ d'f a2 ab|
abd'f afe>d| e/g/f/a/ g/f/e/d/ B2 B>e| ddd>d d>Ad>b| afef d2d :|
A| F>Ad>A B>Ad>A| f>a g/f/e/d/ B2 Bd| FAd>A B>AdA|
f>g a/b/c'/d'/ a2 ab/c'/| d'>c'b>a b>agf| e/g/f/a/ g/f/e/d/ B2 Be|
ddd>d d>Ad>b| afef d2d :|
